X: 4057
T: BUCKS OF CRANMORE
T: Bucks of Oranmore
N: "Cranmore" was a misspelling introduced in this collection.
N: See also tune 4167.
R: Reel.
%R: reel
B: James Kerr "Merry Melodies" v.4 p.09 #57
Z: 2016 John Chambers <jc:trillian.mit.edu>
M: C|
L: 1/8
K: D
|:\
A>D (3(FED) ADBD | A>D (3(FED) (BE)E2 |\
A>D (3(FED) A2 (3(Bcd) | efge fddB ::\
Adfd edfd |
Adfd edBd |\
[1 Adfd edef | abag fddB :|\
[2 (3(ABc) (de) fefg | (3aba (3gag | fddB |]

%%sep 1 1 500
%%sep 1 1 500

